X:1
T:Title
%%score { 1 | ( 2 3 ) }
L:1/8
M:6/8
K:C
V:1 treble nm="Grand Piano"
V:2 bass 
V:3 bass 
V:1
 z3 z2[Q:1/4=104] [CEG] | [CEG]3 [G,CE]2 [Ec] | [Ec]3 [EG]2 [Ec] | e6 | [Ec]3- [Ec]2 [EG] | %5
 [Ec]2 [Ec] [Ac][GB][FA] | [EG]2 [DF] E2 G | c2 c .[^Fc]2 [DFc] | d3- d2 G | %9
 [Ec]2 [Ec] [Ac][GB][FA] | [EG]2 [DF] E2 G | c2 e dAB |[M:5/8] [Ec]-[Ec]- [Ec]3 |[M:1/8] G | %14
[M:3/4] G2 A B2 [DAc] | [DBd]2 [ce] [Bd]2 [Gd] |[M:1/4] [^Fd]2 |[M:2/4] [^Fd] [Fe]2 [Fd] | %18
[M:5/8] d3 B2 |[M:1/8] G |[M:3/4] G2 A B2 [DAc] | [DBd]2 [ce] [Bd]2 [Gd] |[M:1/4] [^Fd]2 | %23
[M:2/4] [Gd] [Ad]2 ^F |[M:3/4] G4- GG | [Ec]2 [Ec][Ec] [DB][Ec] | [Ge]2 [Ec] [Ec]3 | d2 G G3 | %28
[M:5/8] e2 [Ec] [Ec]2 |[M:1/8] [EG] |[M:3/4] e2 ee de |[M:7/8] [Af]2 A A3 A |[M:3/4] G2 cB AB | %33
[M:5/8] [Ec]-[Ec]- [Ec]3 |] %34
V:2
 z3 z2 C, | C,3 C,2 C, | [C,G,]3 [C,C]2 [C,G,] | [CG]6 | [C,C]3- [C,C]2 [C,C] | %5
 [C,C]2 [C,C] [F,C]2 [F,C] | [C,C]2 [C,G,] [C,G,C]2 [E,C] | [A,CE]2 [A,CE] z[K:treble] BD, | %8
 [G,B,G]3- [G,B,G]2 [G,B,] | [C,C]2 [C,C] [F,C]2 [F,C] | [C,C]2 [C,G,] [C,G,C]2 [E,C] | %11
 [G,CE]2 [G,CG] [G,B,F]2 [G,F] |[M:5/8][K:bass] [C,G,]-[C,G,]- [C,G,]3 |[M:1/8] [G,B,] | %14
[M:3/4] [G,B,]2[K:treble] [G,CG] [G,DG]2 G, | G,2 G,[K:bass] G,2 [G,B,] |[M:1/4] [D,A,]2 | %17
[M:2/4] [D,A,] [D,C]2 [D,C] |[M:5/8][K:treble] [G,G]3- [G,DG]2 |[M:1/8] [G,B,] | %20
[M:3/4] [G,B,]2 [G,CG] [G,DG]2[K:bass] G, | G,2 G, G,2 [G,B,] |[M:1/4] [D,A,]2 | %23
[M:2/4] [D,B,] [D,C]2 [D,CD] |[M:3/4] [G,B,D]4- [G,B,D]G, | [C,G,]2 [C,G,] [C,G,]2 [C,G,] | %26
 [C,C]2 [C,G,] [C,G,]3 | [G,B,F]2 [G,B,] [G,B,]3 |[M:5/8] [CG]2[K:bass] [C,G,] [C,G,]2 | %29
[M:1/8] [C,C] |[M:3/4][K:treble] [CG]2 [CG]G F[CG] |[M:7/8][K:bass] [F,C]2 [F,CF] [F,CF]3 [F,CF] | %32
[M:3/4] z2 z D z2 |[M:5/8] [C,G,]-[C,G,]- [C,G,]3 |] %34
V:3
 x6 | x6 | x6 | x6 | x6 | x6 | x6 | z3 .[D,A,]3[K:treble] | x6 | x6 | x6 | x6 |[M:5/8][K:bass] x5 | %13
[M:1/8] x |[M:3/4] x2[K:treble] x4 | x3[K:bass] x3 |[M:1/4] x2 |[M:2/4] x4 | %18
[M:5/8][K:treble] B,3 z2 |[M:1/8] x |[M:3/4] x5[K:bass] x | x6 |[M:1/4] x2 |[M:2/4] x4 | %24
[M:3/4] x6 | x6 | x6 | x6 |[M:5/8] x2[K:bass] x3 |[M:1/8] x |[M:3/4][K:treble] z2 z .C3 | %31
[M:7/8][K:bass] x7 |[M:3/4] [G,CE]2 [G,E]G,- [G,C][G,D] |[M:5/8] x5 |] %34

